X:1
T:The Sea Around Us
M:6/8
L:1/8
K:D
 A| A,DD DCD| DAA A2 B/2B/2| cBc ABA| FED C2 E/2E/2| FFF EDC| DAA A2 A/2B/2|\
 cBA FED| C D2- D2 A| A3/2 d/2 d dcd| e3/2 d/2 c d3| c3/2 B/2 c ABA|\
 A3/2 F/2 E C2 D/2E/2| F3/2 G/2 F EDC| D3/2 A/2 A AAB| cBA GED| C D2- D2||\
